exported-svg/zap-off.svg

<svg height="24" viewBox="0 0 24 24" width="24" xmlns="http://www.w3.org/2000/svg"><path d="m7.32357648 8.03068326-6.67712987-6.67712987c-.19526215-.19526215-.19526215-.51184463 0-.70710678s.51184463-.19526215.70710678 0l6.99639176 6.99639176c.00271546.00265489.00539198.00533161.0080324.0080324l7.99197055 7.99197053c.0027125.002652.005389.0053287.0080295.0080295l6.9955758 6.9955758c.1952621.1952622.1952621.5118446 0 .7071068-.1952622.1952621-.5118446.1952621-.7071068 0l-6.6128474-6.6128474-4.6494886 5.5793862c-.3196264.3835518-.9421767.1133075-.8802495-.3821096l.9297478-7.4379826h-8.4336089c-.42391882 0-.65549686-.4944287-.38411064-.8200922zm.7100227.7100227-3.96607837 4.75929404h7.93247919c.300749 0 .5334423.2635908.4961389.5620174l-.7884692 6.307754 3.6159068-4.3390881zm3.88021382-2.05233761.3798251-3.0579139-1.3393118 1.60937876c-.176639.21225756-.4919019.24113211-.7041595.06449311s-.2411321-.49190196-.0644931-.70415953l2.43-2.92c.3193506-.38374646.942052-.11397352.8805133.38146486l-.59 4.75c-.0340382.27403651-.2837821.46859357-.5578186.43455535-.2740366-.03403822-.4685936-.28378213-.4345554-.55781865zm6.2724009 5.90115045 1.7448559-2.0895188h-4.2710698c-.2761424 0-.5-.2238576-.5-.5 0-.27614237.2238576-.5.5-.5h5.34c.424156 0 .6556542.49491082.3837861.8204812l-2.43 2.91c-.1769968.2119592-.4923081.2403018-.7042673.0633049-.2119592-.1769968-.2403018-.4923081-.0633049-.7042673z"/></svg>

<?xml version="1.0" encoding="UTF-8"?>
<svg width="24px" height="24px" viewBox="0 0 24 24" version="1.1" xmlns="http://www.w3.org/2000/svg" xmlns:xlink="http://www.w3.org/1999/xlink">
    <!-- Generator: Sketch 55.2 (78181) - https://sketchapp.com -->
    <title>zap-off</title>
    <desc>Created with Sketch.</desc>
    <g id="zap-off" stroke="none" stroke-width="1" fill="none" fill-rule="evenodd">
        <path d="M7.32357648,8.03068326 L0.646446609,1.35355339 C0.451184464,1.15829124 0.451184464,0.841708755 0.646446609,0.646446609 C0.841708755,0.451184464 1.15829124,0.451184464 1.35355339,0.646446609 L8.34994515,7.64283837 C8.35266061,7.64549326 8.35533713,7.64816998 8.35797755,7.65087077 L16.3499481,15.6428413 C16.3526606,15.6454933 16.3553371,15.64817 16.3579776,15.6508708 L23.3535534,22.6464466 C23.5488155,22.8417088 23.5488155,23.1582912 23.3535534,23.3535534 C23.1582912,23.5488155 22.8417088,23.5488155 22.6464466,23.3535534 L16.0335992,16.740706 L11.3841106,22.3200922 C11.0644842,22.703644 10.4419339,22.4333997 10.5038611,21.9379826 L11.4336089,14.5 L3,14.5 C2.57608118,14.5 2.34450314,14.0055713 2.61588936,13.6799078 L7.32357648,8.03068326 Z M8.03359918,8.74070596 L4.06752081,13.5 L12,13.5 C12.300749,13.5 12.5334423,13.7635908 12.4961389,14.0620174 L11.7076697,20.3697714 L15.3235765,16.0306833 L8.03359918,8.74070596 Z M11.913813,6.68836835 L12.2936381,3.63045445 L10.9543263,5.23983321 C10.7776873,5.45209077 10.4624244,5.48096532 10.2501668,5.30432632 C10.0379092,5.12768732 10.0090347,4.81242436 10.1856737,4.60016679 L12.6156737,1.68016679 C12.9350243,1.29642033 13.5577257,1.56619327 13.496187,2.06163165 L12.906187,6.81163165 C12.8721488,7.08566816 12.6224049,7.28022522 12.3483684,7.246187 C12.0743318,7.21214878 11.8797748,6.96240487 11.913813,6.68836835 Z M18.1862139,12.5895188 L19.9310698,10.5 L15.66,10.5 C15.3838576,10.5 15.16,10.2761424 15.16,10 C15.16,9.72385763 15.3838576,9.5 15.66,9.5 L21,9.5 C21.424156,9.5 21.6556542,9.99491082 21.3837861,10.3204812 L18.9537861,13.2304812 C18.7767893,13.4424404 18.461478,13.470783 18.2495188,13.2937861 C18.0375596,13.1167893 18.009217,12.801478 18.1862139,12.5895188 Z" id="Combined-Shape" fill="#000000" fill-rule="nonzero"></path>
    </g>
</svg>
